X:0564
T:The Goddesses.
M:2/4
L:1/16
Q:1/4=112
I: :: :: :: ::
Z:Jack Campin * www.campin.me.uk * 2009
K:D
D2F2````A2``d2 |   c2(Bc)  A4    | A2c2`````e2``g2 |    f2(ef) d2d2|\
f2(fa) .g2`.g2 |   e2(eg) .f2.f2 | d2(df)   e2``e2 |    c2`c2  d4 ::
e4     (dc)(BA)|  .e2.e2(``c2`A2)| a4      (gf``ed)|   .a2.a2  f2d2|\
f2(fa) .g2`.g2 |  (e2`eg) .f2.f2 | d2(df)  .e2`.e2 |    c2`c2  d4 ::
A2d2````f2``a2 |{b}a4      g2`f2 | g2`e2````d2``c2 |   (dc`de) d2d2|\
A2d2````f2``a2 |{b}a4      g2`e2 | g2`e2````d2``c2 |    d4     d4 ::
A2A2    BA``GF |   G2`B2   B4    | A2``f2   ge``dc |{e}(dc`de) d2d2|\
A2A2   (BA)(GF)|   G2`B2   B4    |(Ac).e.f (ge).d.c|    d4     d4 :|

